X: 1
T: Balindore
C: Donald Shaw
O: Scotland
R: jig
Z: 2013 John Chambers <jc:trillian.mit.edu>
M: 6/8
L: 1/8
K: Bm
|:\
BBB fec | cBc BAF | BBB edc | cBA ABc |\
BBB fec | cBc BAF | FAF EEE | FAF d2c :|
|:\
B2c FFF | edc cBA | fef cfe | cBA ABc |\
B2c FFF | edc cBA |1 FAF EEE | FAF d2c :|2 BdB AAA BdB g2a |]
|:\
fag fed | ddd BdA | fag fed | ddd efe |\
fag fed | ddd BdA | BdB AAA |1 BdB g2a :|2 BdB g2f |]
